src/assets/icon/add-bookmark.svg

<svg width="24" height="24" viewBox="0 0 24 24" fill="none" xmlns="http://www.w3.org/2000/svg">
<path d="M20 6.25879C20 6.80879 19.55 7.25879 19 7.25879H18V8.25879C18 8.80879 17.55 9.25879 17 9.25879C16.45 9.25879 16 8.80879 16 8.25879V7.25879H15C14.45 7.25879 14 6.80879 14 6.25879C14 5.70879 14.45 5.25879 15 5.25879H16V4.25879C16 3.70879 16.45 3.25879 17 3.25879C17.55 3.25879 18 3.70879 18 4.25879V5.25879H19C19.55 5.25879 20 5.70879 20 6.25879ZM18 19.7388C18 20.4588 17.27 20.9388 16.61 20.6588L11 18.2588L5.39003 20.6588C5.23814 20.7248 5.07217 20.7518 4.9072 20.7373C4.74222 20.7228 4.58348 20.6674 4.44538 20.576C4.30729 20.4846 4.19421 20.3601 4.11644 20.2139C4.03866 20.0677 3.99865 19.9044 4.00003 19.7388V5.25879C4.00003 4.15879 4.90003 3.25879 6.00003 3.25879H13C12.3923 4.07041 12.0455 5.04758 12.0057 6.06075C11.966 7.07393 12.235 8.07527 12.7773 8.93204C13.3196 9.78882 14.1094 10.4606 15.0421 10.8582C15.9748 11.2559 17.0064 11.3607 18 11.1588V19.7388Z" fill="#1D1C49"/>
</svg>

<svg xmlns="http://www.w3.org/2000/svg" width="24" height="24" fill="none"><path fill="#1D1C49" d="M20 6.259c0 .55-.45 1-1 1h-1v1c0 .55-.45 1-1 1s-1-.45-1-1v-1h-1c-.55 0-1-.45-1-1s.45-1 1-1h1v-1c0-.55.45-1 1-1s1 .45 1 1v1h1c.55 0 1 .45 1 1Zm-2 13.48c0 .72-.73 1.2-1.39.92l-5.61-2.4-5.61 2.4a.993.993 0 0 1-1.39-.92V5.259c0-1.1.9-2 2-2h7a5.003 5.003 0 0 0 5 7.9v8.58Z"/></svg>
